symbols/web/output/materialsymbolsoutlined/output_wght300grad200_24px.svg

<svg xmlns="http://www.w3.org/2000/svg" height="24" width="24"><path d="M5.3 21.15q-1.025 0-1.738-.712-.712-.713-.712-1.738V5.3q0-1.025.712-1.738.713-.712 1.738-.712h13.4q1.025 0 1.738.712.712.713.712 1.738v1.775H19V5.3q0-.1-.1-.2t-.2-.1H5.3q-.1 0-.2.1t-.1.2v13.4q0 .1.1.2t.2.1h13.4q.1 0 .2-.1t.1-.2v-1.775h2.15V18.7q0 1.025-.712 1.738-.713.712-1.738.712Zm11.775-4.05-1.5-1.5 2.5-2.525h-9v-2.15h9l-2.5-2.525 1.5-1.5 5.1 5.1Z"/></svg>

<svg xmlns="http://www.w3.org/2000/svg" height="24" width="24"><path d="M5.3 21.15Q4.275 21.15 3.562 20.438Q2.85 19.725 2.85 18.7V5.3Q2.85 4.275 3.562 3.562Q4.275 2.85 5.3 2.85H18.7Q19.725 2.85 20.438 3.562Q21.15 4.275 21.15 5.3V7.075H19V5.3Q19 5.2 18.9 5.1Q18.8 5 18.7 5H5.3Q5.2 5 5.1 5.1Q5 5.2 5 5.3V18.7Q5 18.8 5.1 18.9Q5.2 19 5.3 19H18.7Q18.8 19 18.9 18.9Q19 18.8 19 18.7V16.925H21.15V18.7Q21.15 19.725 20.438 20.438Q19.725 21.15 18.7 21.15ZM17.075 17.1 15.575 15.6 18.075 13.075H9.075V10.925H18.075L15.575 8.4L17.075 6.9L22.175 12Z"/></svg>
